public/assets/icons/close-icon.svg

<svg width="24" height="25" viewBox="0 0 24 25" fill="none" xmlns="http://www.w3.org/2000/svg">
<path d="M18.2997 6.34205C17.9097 5.95205 17.2797 5.95205 16.8897 6.34205L11.9997 11.2221L7.10973 6.33205C6.71973 5.94205 6.08973 5.94205 5.69973 6.33205C5.30973 6.72205 5.30973 7.35205 5.69973 7.74205L10.5897 12.6321L5.69973 17.522C5.30973 17.9121 5.30973 18.542 5.69973 18.932C6.08973 19.3221 6.71973 19.3221 7.10973 18.932L11.9997 14.0421L16.8897 18.932C17.2797 19.3221 17.9097 19.3221 18.2997 18.932C18.6897 18.542 18.6897 17.9121 18.2997 17.522L13.4097 12.6321L18.2997 7.74205C18.6797 7.36205 18.6797 6.72205 18.2997 6.34205Z" fill="#FAFAFA"/>
</svg>

<svg xmlns="http://www.w3.org/2000/svg" width="24" height="25" fill="none" xmlns:v="https://vecta.io/nano"><path d="M18.3 6.342c-.39-.39-1.02-.39-1.41 0L12 11.222l-4.89-4.89c-.39-.39-1.02-.39-1.41 0s-.39 1.02 0 1.41l4.89 4.89-4.89 4.89c-.39.39-.39 1.02 0 1.41s1.02.39 1.41 0l4.89-4.89 4.89 4.89c.39.39 1.02.39 1.41 0s.39-1.02 0-1.41l-4.89-4.89 4.89-4.89c.38-.38.38-1.02 0-1.4z" fill="#fafafa"/></svg>
